img/icons/instruments/hi-hat.svg

<svg fill="none" viewBox="0 0 16 16" xmlns="http://www.w3.org/2000/svg"><path d="m14.4 9.66c0.194 0.196 0.192 0.513-0.0045 0.707-1.03 1.02-3.38 1.58-6.39 1.63l-0.00159 2.5c0 0.276-0.224 0.5-0.5 0.5s-0.5-0.224-0.5-0.5l-1.5e-4 -2.5c-2.97-0.0543-5.3-0.597-6.35-1.59-0.201-0.19-0.209-0.506-0.0195-0.707s0.506-0.209 0.707-0.0195c0.867 0.821 3.2 1.32 6.16 1.32 3 0 5.34-0.513 6.19-1.35 0.196-0.194 0.513-0.192 0.707 0.00446zm-6.9-9.66c0.276 0 0.5 0.224 0.5 0.5l8.7e-4 2.24c0.878 0.132 1.66 0.619 2.34 1.44 2.73 0.367 4.66 1.31 4.66 2.82 0 1.95-3.2 2.95-7.21 3l-0.288 0.00162c-4.14 0-7.5-1-7.5-3 0-1.51 1.93-2.46 4.66-2.82 0.683-0.822 1.46-1.31 2.34-1.44l-1.3e-4 -2.24c0-0.276 0.224-0.5 0.5-0.5zm0.501 3.76-9.4e-4 0.745c0 0.276-0.224 0.5-0.5 0.5s-0.5-0.224-0.5-0.5l6e-5 -0.745c-0.964 0.217-1.81 1.08-2.55 2.66-0.117 0.25-0.414 0.358-0.665 0.242-0.25-0.117-0.358-0.414-0.242-0.665 0.073-0.156 0.148-0.307 0.224-0.453l0.115-0.214-0.128 0.026c-1.74 0.364-2.76 0.985-2.76 1.65 0 1.06 2.56 2 6.5 2s6.5-0.943 6.5-2c0-0.683-1.07-1.32-2.89-1.68 0.116 0.211 0.23 0.435 0.34 0.671 0.117 0.25 0.0086 0.548-0.242 0.665-0.25 0.117-0.548 0.00858-0.664-0.242-0.735-1.57-1.58-2.44-2.55-2.66z" fill="#000"/></svg>

<svg xmlns="http://www.w3.org/2000/svg" viewBox="0 0 16 16" fill="none">
  <path fill="#000"
    d="M14.396 9.658a.5.5 0 0 1-.004.707c-1.033 1.02-3.383 1.576-6.39 1.63L8 14.5a.5.5 0 0 1-1 0v-2.504c-2.97-.055-5.3-.597-6.352-1.592a.5.5 0 0 1 .688-.726C2.203 10.498 4.532 11 7.5 11c3 0 5.345-.512 6.19-1.346a.5.5 0 0 1 .706.004ZM7.5 0a.5.5 0 0 1 .5.5v2.237c.88.133 1.66.619 2.343 1.44C13.075 4.546 15 5.487 15 7 15 8.954 11.797 9.953 7.788 10L7.5 10C3.358 10 0 9 0 7c0-1.514 1.925-2.455 4.658-2.823C5.34 3.355 6.122 2.87 7 2.737V.5a.5.5 0 0 1 .5-.5ZM8 3.756V4.5a.5.5 0 0 1-1 0v-.745c-.964.218-1.812 1.082-2.547 2.657a.5.5 0 0 1-.906-.423c.073-.157.148-.308.224-.453l.115-.214-.128.026C2.018 5.712 1 6.333 1 7c0 1.057 2.56 2 6.5 2S14 8.057 14 7c0-.683-1.068-1.318-2.887-1.682.116.21.23.435.34.67a.5.5 0 1 1-.906.424C9.812 4.837 8.964 3.973 8 3.756Z" />
</svg>
